X: 481
T: Millers dance on the Windmill
M:6/8
L:1/8
S: 8: MCJLSH3 http://www.cpartington.plus.com/links/Walsh.abc
Z: Pete Stewart 2004
N:3/8 printe
B: Walsh "Third Book of the most Celebrated jiggs, Lancashire hornpipes, ..."
K:D
d3DFA | d3DFA | d3def | ecA aec | ecA aec | ecA aec | ecA EA^G | AECA,3 ||
a3 Ace | a3 Ace | a3efg | fda fda | fda fda | fda fda | fdf Adc | dAFD3 ||

%%sep 1 1 500
%%sep 1 1 500
